X:64
M:2/4
L:1/8
Q:1/4=110
K:A
|:df e/a/Ta|df e/a/Ta|Bd/B/ ce/c/|Ac/A/ BE|\
df e/a/Ta|df e/a/Ta|Bd/B/ ce/c/|d/B/A/G/ A2:|

